img/icon-external-link.svg

<svg width="12" height="12" viewBox="0 0 12 12" fill="none" xmlns="http://www.w3.org/2000/svg">
<path d="M6 1H11V6L8.86 3.85L4.7 8L4 7.3L8.15 3.14L6 1ZM2 3H4V4H2V10H8V8H9V10C9 10.2652 8.89464 10.5196 8.70711 10.7071C8.51957 10.8946 8.26522 11 8 11H2C1.73478 11 1.48043 10.8946 1.29289 10.7071C1.10536 10.5196 1 10.2652 1 10V4C1 3.73478 1.10536 3.48043 1.29289 3.29289C1.48043 3.10536 1.73478 3 2 3Z" fill="black" fill-opacity="0.5"/>
</svg>

<svg width="12" height="12" fill="none" xmlns="http://www.w3.org/2000/svg"><path d="M6 1h5v5L8.86 3.85 4.7 8 4 7.3l4.15-4.16L6 1zM2 3h2v1H2v6h6V8h1v2a1 1 0 0 1-1 1H2a1 1 0 0 1-1-1V4a1 1 0 0 1 1-1z" fill="#000" fill-opacity=".5"/></svg>
